packages/core/src/svgs/networks/branded/rari.svg

<svg width="24" height="24" viewBox="0 0 24 24" fill="none" xmlns="http://www.w3.org/2000/svg">
<path d="M2 8.39774V5.70414C2 4.88593 2.85279 4.22266 3.90476 4.22266H7.36796C8.41994 4.22266 9.27274 4.88593 9.27274 5.70414V7.87932C9.27274 8.25437 9.46429 8.61407 9.80525 8.87927C10.5152 9.43153 11.6665 9.43153 12.3766 8.87927L17.8057 4.65657C18.163 4.37873 18.6475 4.22266 19.1526 4.22266H20.0953C21.1473 4.22266 22 4.88593 22 5.70414V6.43729C22 6.83021 21.7994 7.20703 21.4421 7.48486L16.0129 11.7075C15.3029 12.2598 15.3029 13.1552 16.0129 13.7074C16.3539 13.9727 16.8164 14.1217 17.2986 14.1217H20.0953C21.1473 14.1217 22 14.7849 22 15.6032V18.2967C22 19.1149 21.1473 19.7782 20.0953 19.7782H16.632C15.5801 19.7782 14.7272 19.1149 14.7272 18.2967V16.1215C14.7272 15.7465 14.5358 15.3868 14.1948 15.1217C13.4848 14.5693 12.3335 14.5693 11.6234 15.1217L6.19426 19.3443C5.83704 19.622 5.35256 19.7782 4.84739 19.7782H3.90476C2.85279 19.7782 2 19.1149 2 18.2967V17.5635C2 17.1707 2.20068 16.7938 2.55789 16.516L7.98709 12.2933C8.69712 11.741 8.69712 10.8457 7.98709 10.2934C7.64611 10.0282 7.18365 9.87917 6.70142 9.87917H3.90476C2.85279 9.87917 2 9.21594 2 8.39774Z" fill="#B16EFF"/>
</svg>

<svg xmlns="http://www.w3.org/2000/svg" width="24" height="24" fill="none" viewBox="0 0 24 24">
    <path fill="#B16EFF" d="M2 8.398V5.704c0-.818.853-1.481 1.905-1.481h3.463c1.052 0 1.905.663 1.905 1.481V7.88c0 .375.191.735.532 1 .71.553 1.861.553 2.572 0l5.429-4.222c.357-.278.841-.434 1.347-.434h.942c1.052 0 1.905.663 1.905 1.481v.733c0 .393-.2.77-.558 1.048l-5.43 4.222c-.71.553-.71 1.448 0 2 .342.266.804.415 1.287.415h2.796c1.052 0 1.905.663 1.905 1.481v2.694c0 .818-.853 1.481-1.905 1.481h-3.463c-1.052 0-1.905-.663-1.905-1.481v-2.175c0-.376-.191-.735-.532-1-.71-.553-1.861-.553-2.572 0l-5.429 4.222c-.357.278-.841.434-1.347.434h-.942C2.853 19.778 2 19.115 2 18.297v-.733c0-.393.2-.77.558-1.048l5.43-4.223c.71-.552.71-1.447 0-2-.342-.265-.804-.414-1.287-.414H3.905C2.853 9.88 2 9.216 2 8.398"/>
</svg>
